;FLAVOR:UltiGCode
;TIME:1143
;MATERIAL:3000
;MATERIAL2:0
;NOZZLE_DIAMETER:0.4
;MINX:96.774
;MINY:96.771
;MINZ:0.3
;MAXX:126.227
;MAXY:126.237
;MAXZ:21.98
;Generated with Cura_SteamEngine main
M82 ;absolute extrusion mode
G0 F3000 Y50 ;avoid prime blob
G92 E0
G92 E0
G10
;LAYER_COUNT:100
;LAYER:0
M107
G0 F3600 X101.042 Y101.132 Z0.3
G0 X96.774 Y111.619
;TYPE:SKIRT
G11
G1 F1800 X96.78 Y110.999 E0.0744
G1 X96.825 Y110.289 E0.15977
G1 X96.919 Y109.43 E0.26347
G1 X97.041 Y108.641 E0.35927
G1 X97.265 Y107.733 E0.4715
G1 X97.405 Y107.235 E0.53358
G1 X97.627 Y106.544 E0.62067
G1 X97.832 Y106.014 E0.68886
G1 X98.105 Y105.367 E0.77313
G1 X98.387 Y104.788 E0.85042
G1 X98.7 Y104.221 E0.92813
G1 X99.052 Y103.637 E1.00996
G1 X99.498 Y102.968 E1.10644
G1 X99.794 Y102.553 E1.16761
G1 X100.153 Y102.103 E1.23669
G1 X100.67 Y101.524 E1.32984
G1 X101.042 Y101.132 E1.39469
G1 X101.523 Y100.666 E1.47506
G1 X102.124 Y100.148 E1.57027
G1 X102.672 Y99.718 E1.65385
G1 X103.219 Y99.32 E1.73503
G1 X103.766 Y98.974 E1.8127
G1 X104.706 Y98.426 E1.94327
G1 X105.487 Y98.061 E2.04672
G1 X106.199 Y97.759 E2.13953
G1 X106.693 Y97.587 E2.2023
G1 X107.998 Y97.176 E2.36648
G1 X108.856 Y97.014 E2.47126
G1 X109.781 Y96.875 E2.58351
G1 X110.387 Y96.815 E2.65658
G1 X111.106 Y96.771 E2.74302
G1 X111.865 Y96.78 E2.83411
G1 X112.889 Y96.841 E2.95721
G1 X113.869 Y96.966 E3.07576
G1 X114.948 Y97.172 E3.20758
G1 X115.435 Y97.301 E3.26803
G1 X115.965 Y97.466 E3.33464
G1 X116.783 Y97.75 E3.43855
G1 X117.432 Y98.031 E3.52342
G1 X118.486 Y98.528 E3.66326
G1 X119.132 Y98.904 E3.75295
G1 X119.794 Y99.316 E3.84652
G1 X120.36 Y99.735 E3.93102
G1 X121.025 Y100.264 E4.03299
G1 X121.735 Y100.913 E4.14842
G1 X122.238 Y101.413 E4.23353
G1 X122.727 Y101.973 E4.32275
G1 X123.184 Y102.542 E4.41032
G1 X123.694 Y103.239 E4.51396
G1 X124.022 Y103.759 E4.58774
G1 X124.567 Y104.691 E4.7173
G1 X124.963 Y105.532 E4.82884
G1 X125.25 Y106.184 E4.91433
G1 X125.59 Y107.236 E5.047
G1 X125.865 Y108.252 E5.17331
G1 X126.046 Y109.175 E5.28618
G1 X126.18 Y110.206 E5.41094
G1 X126.227 Y111.205 E5.53095
G1 X126.22 Y111.882 E5.61219
G1 X126.17 Y112.778 E5.71988
G1 X126.043 Y113.809 E5.84454
G1 X125.865 Y114.752 E5.95969
G1 X125.712 Y115.385 E6.03784
G1 X125.533 Y115.97 E6.11125
G1 X125.23 Y116.864 E6.22453
G1 X124.843 Y117.723 E6.33759
G1 X124.424 Y118.551 E6.44894
G1 X123.972 Y119.333 E6.55733
G1 X123.587 Y119.943 E6.64389
G1 X122.987 Y120.711 E6.76084
G1 X122.62 Y121.151 E6.8296
G1 X122.083 Y121.739 E6.92516
G1 X121.582 Y122.244 E7.01052
G1 X120.885 Y122.845 E7.12096
G1 X120.458 Y123.184 E7.18638
G1 X119.864 Y123.619 E7.27473
G1 X119.378 Y123.938 E7.34449
G1 X118.297 Y124.572 E7.49488
G1 X117.469 Y124.962 E7.60471
G1 X116.838 Y125.239 E7.6874
G1 X116.01 Y125.519 E7.79229
G1 X115.434 Y125.698 E7.86467
G1 X114.728 Y125.871 E7.9519
G1 X114.111 Y125.992 E8.02735
G1 X112.885 Y126.173 E8.17606
G1 X111.447 Y126.237 E8.34879
G1 X110.598 Y126.199 E8.45077
G1 X109.476 Y126.086 E8.5861
G1 X107.862 Y125.789 E8.78303
G1 X106.885 Y125.486 E8.90578
G1 X106.146 Y125.234 E8.99947
G1 X105.48 Y124.94 E9.08683
G1 X104.888 Y124.66 E9.16542
G1 X104.176 Y124.277 E9.26243
G1 X103.633 Y123.952 E9.33837
G1 X103.084 Y123.582 E9.41782
G1 X102.543 Y123.185 E9.49834
G1 X102.103 Y122.837 E9.56566
G1 X101.37 Y122.194 E9.68267
G1 X100.836 Y121.66 E9.77329
G1 X100.48 Y121.271 E9.83657
G1 X100.142 Y120.873 E9.89923
G1 X99.654 Y120.245 E9.99467
G1 X99.338 Y119.804 E10.05977
G1 X98.93 Y119.177 E10.14954
G1 X98.455 Y118.331 E10.26596
G1 X98.189 Y117.786 E10.33874
G1 X97.827 Y116.951 E10.44795
G1 X97.558 Y116.255 E10.53749
G1 X97.303 Y115.402 E10.64433
G1 X97.149 Y114.779 E10.72134
G1 X96.919 Y113.614 E10.86383
G1 X96.799 Y112.337 E11.01775
G1 X96.774 Y111.619 E11.10396
G0 F3600 X97.174 Y111.606
G1 F1800 X97.179 Y111.024 E11.1738
G1 X97.224 Y110.314 E11.25917
G1 X97.315 Y109.487 E11.35901
G1 X97.431 Y108.727 E11.45127
G1 X97.621 Y107.95 E11.54726
G1 X97.758 Y107.451 E11.60935
G1 X97.957 Y106.803 E11.6907
G1 X98.2 Y106.169 E11.77217
G1 X98.473 Y105.522 E11.85644
G1 X98.911 Y104.641 E11.97451
G1 X99.483 Y103.705 E12.10614
G1 X99.829 Y103.192 E12.18039
G1 X100.361 Y102.465 E12.2885
G1 X101.092 Y101.65 E12.41987
G1 X101.705 Y101.037 E12.5239
G1 X102.372 Y100.461 E12.62966
G1 X102.791 Y100.129 E12.69381
G1 X103.436 Y99.655 E12.78986
G1 X103.968 Y99.32 E12.8653
G1 X104.893 Y98.781 E12.99377
G1 X105.643 Y98.429 E13.09319
G1 X106.232 Y98.179 E13.16997
G1 X106.814 Y97.968 E13.24426
G1 X107.757 Y97.671 E13.3629
G1 X108.363 Y97.514 E13.43802
G1 X108.93 Y97.407 E13.50726
G1 X109.626 Y97.298 E13.5918
G1 X110.584 Y97.201 E13.70735
G1 X111.241 Y97.173 E13.78626
G1 X111.861 Y97.18 E13.86067
G1 X112.846 Y97.239 E13.97908
G1 X113.811 Y97.362 E14.09582
G1 X115.064 Y97.604 E14.24895
G1 X115.836 Y97.845 E14.346
G1 X116.636 Y98.122 E14.44759
G1 X117.262 Y98.393 E14.52945
G1 X118.305 Y98.885 E14.66784
G1 X119.033 Y99.311 E14.76906
G1 X119.571 Y99.649 E14.8453
G1 X120.112 Y100.049 E14.92604
G1 X120.571 Y100.414 E14.99641
G1 X121.015 Y100.793 E15.06646
G1 X121.464 Y101.207 E15.13975
G1 X121.937 Y101.677 E15.21977
G1 X122.425 Y102.236 E15.30881
G1 X122.965 Y102.915 E15.41292
G1 X123.295 Y103.37 E15.48037
G1 X123.603 Y103.84 E15.5478
G1 X124.216 Y104.884 E15.69308
G1 X124.557 Y105.605 E15.78878
G1 X124.874 Y106.321 E15.88275
G1 X125.204 Y107.341 E16.0114
G1 X125.476 Y108.344 E16.1361
G1 X125.614 Y108.962 E16.21209
G1 X125.737 Y109.874 E16.32252
G1 X125.792 Y110.476 E16.39506
G1 X125.838 Y111.432 E16.50991
G1 X125.771 Y112.745 E16.66768
G1 X125.647 Y113.748 E16.78896
G1 X125.498 Y114.549 E16.88672
G1 X125.329 Y115.268 E16.97536
G1 X125.114 Y115.966 E17.063
G1 X124.857 Y116.718 E17.15836
G1 X124.478 Y117.559 E17.26906
G1 X124.068 Y118.369 E17.378
G1 X123.633 Y119.12 E17.48215
G1 X123.257 Y119.716 E17.56671
G1 X122.59 Y120.566 E17.69636
G1 X122.203 Y121.019 E17.76786
G1 X121.686 Y121.574 E17.85888
G1 X121.213 Y122.035 E17.93814
G1 X120.763 Y122.427 E18.00975
G1 X120.085 Y122.965 E18.11362
G1 X119.308 Y123.518 E18.22806
G1 X118.1 Y124.223 E18.3959
G1 X117.309 Y124.596 E18.50085
G1 X116.696 Y124.865 E18.58118
G1 X115.981 Y125.108 E18.6718
G1 X115.315 Y125.316 E18.75552
G1 X114.639 Y125.481 E18.83902
G1 X113.882 Y125.626 E18.93152
G1 X112.849 Y125.774 E19.05674
G1 X111.827 Y125.823 E19.17952
G1 X111.052 Y125.823 E19.27252
G1 X110.428 Y125.785 E19.34754
G1 X109.526 Y125.689 E19.45639
G1 X107.986 Y125.408 E19.64424
G1 X107.117 Y125.141 E19.75334
G1 X106.29 Y124.86 E19.85815
G1 X105.55 Y124.532 E19.95528
G1 X104.883 Y124.209 E20.04421
G1 X104.378 Y123.932 E20.11333
G1 X103.661 Y123.504 E20.21353
G1 X102.779 Y122.862 E20.34444
G1 X102.084 Y122.304 E20.4514
G1 X101.475 Y121.733 E20.55157
G1 X100.994 Y121.245 E20.6338
G1 X100.447 Y120.615 E20.73392
G1 X99.888 Y119.889 E20.84387
G1 X99.352 Y119.111 E20.95724
G1 X98.9 Y118.315 E21.06709
G1 X98.641 Y117.809 E21.1353
G1 X98.194 Y116.792 E21.26861
G1 X97.935 Y116.118 E21.35525
G1 X97.691 Y115.306 E21.457
G1 X97.537 Y114.683 E21.53401
G1 X97.313 Y113.544 E21.67331
G1 X97.195 Y112.217 E21.83318
G1 X97.174 Y111.606 E21.90654
G0 F3600 X97.574 Y111.592
G1 F1800 X97.578 Y111.05 E21.97158
G1 X97.623 Y110.34 E22.05695
G1 X97.699 Y109.635 E22.14204
G1 X97.82 Y108.823 E22.24056
G1 X98.01 Y108.045 E22.33666
G1 X98.169 Y107.471 E22.40813
G1 X98.423 Y106.676 E22.50829
G1 X98.842 Y105.678 E22.63817
G1 X99.158 Y105.043 E22.72329
G1 X99.462 Y104.501 E22.79786
G1 X99.735 Y104.053 E22.86081
G1 X100.214 Y103.339 E22.96399
G1 X100.675 Y102.714 E23.05718
G1 X101.198 Y102.131 E23.15117
G1 X101.787 Y101.507 E23.25414
G1 X102.504 Y100.872 E23.36907
G1 X103.04 Y100.443 E23.45145
G1 X103.585 Y100.043 E23.53258
G1 X104.06 Y99.732 E23.60071
G1 X105.084 Y99.132 E23.74313
G1 X105.8 Y98.797 E23.83799
G1 X106.389 Y98.547 E23.91477
G1 X106.934 Y98.35 E23.98431
G1 X108.207 Y97.951 E24.1444
G1 X109.11 Y97.782 E24.25464
G1 X109.687 Y97.693 E24.3247
G1 X110.606 Y97.601 E24.43553
G1 X111.236 Y97.573 E24.51121
G1 X111.856 Y97.58 E24.58561
G1 X112.716 Y97.632 E24.689
G1 X113.738 Y97.756 E24.81254
G1 X114.964 Y97.992 E24.96236
G1 X115.706 Y98.223 E25.05562
G1 X116.194 Y98.39 E25.11751
G1 X117.002 Y98.714 E25.22197
G1 X118.118 Y99.239 E25.36997
G1 X118.821 Y99.65 E25.46769
G1 X119.343 Y99.978 E25.54167
G1 X119.864 Y100.363 E25.61941
G1 X120.313 Y100.72 E25.68825
G1 X120.744 Y101.087 E25.75618
G1 X121.291 Y101.595 E25.84576
G1 X121.722 Y102.038 E25.91992
G1 X122.124 Y102.499 E25.99332
G1 X122.557 Y103.039 E26.07638
G1 X122.971 Y103.605 E26.16053
G1 X123.331 Y104.163 E26.24022
G1 X123.859 Y105.066 E26.36574
G1 X124.231 Y105.855 E26.47042
G1 X124.501 Y106.468 E26.5508
G1 X124.818 Y107.446 E26.67417
G1 X125.087 Y108.437 E26.79739
G1 X125.253 Y109.282 E26.90073
G1 X125.382 Y110.262 E27.01935
G1 X125.427 Y111.203 E27.13239
G1 X125.421 Y111.837 E27.20848
G1 X125.372 Y112.72 E27.3146
G1 X125.234 Y113.783 E27.44323
G1 X125.084 Y114.579 E27.54043
G1 X124.947 Y115.151 E27.61101
G1 X124.768 Y115.736 E27.68443
G1 X124.484 Y116.572 E27.79038
G1 X124.043 Y117.54 E27.91802
G1 X123.712 Y118.186 E28.00513
G1 X123.295 Y118.906 E28.10497
G1 X122.929 Y119.486 E28.18727
G1 X122.357 Y120.218 E28.29875
G1 X121.909 Y120.748 E28.38203
G1 X121.404 Y121.291 E28.47101
G1 X120.95 Y121.733 E28.54705
G1 X120.5 Y122.125 E28.61866
G1 X119.961 Y122.557 E28.70155
G1 X119.105 Y123.174 E28.82817
G1 X117.924 Y123.863 E28.99225
G1 X117.148 Y124.229 E29.09521
G1 X116.54 Y124.496 E29.17489
G1 X115.773 Y124.755 E29.27204
G1 X115.197 Y124.934 E29.34442
G1 X114.551 Y125.091 E29.4242
G1 X113.959 Y125.207 E29.49659
G1 X112.916 Y125.366 E29.62319
G1 X111.662 Y125.427 E29.77385
G1 X111.073 Y125.423 E29.84453
G1 X110.47 Y125.387 E29.91702
G1 X109.586 Y125.293 E30.0237
G1 X108.344 Y125.065 E30.17523
G1 X107.833 Y124.942 E30.2383
G1 X107.144 Y124.729 E30.32484
G1 X106.435 Y124.487 E30.41474
G1 X105.722 Y124.171 E30.50833
G1 X105.075 Y123.858 E30.59458
G1 X104.58 Y123.587 E30.66229
G1 X104.076 Y123.286 E30.73274
G1 X103.557 Y122.937 E30.80779
G1 X103.016 Y122.54 E30.88832
G1 X102.487 Y122.115 E30.96974
G1 X101.886 Y121.581 E31.06622
G1 X101.176 Y120.86 E31.18765
G1 X100.66 Y120.241 E31.28435
G1 X100.092 Y119.499 E31.39649
G1 X99.625 Y118.782 E31.49917
G1 X99.248 Y118.118 E31.59079
G1 X98.923 Y117.468 E31.678
G1 X98.561 Y116.633 E31.78721
G1 X98.286 Y115.898 E31.88138
G1 X98.128 Y115.386 E31.94568
G1 X97.889 Y114.423 E32.06475
G1 X97.711 Y113.495 E32.17814
G1 X97.607 Y112.393 E32.31097
G1 X97.574 Y111.592 E32.40717
G10
;MESH:Connector-binding.stl
G0 F3600 X100.103 Y111.544
G0 X100.963 Y111.23
;TYPE:WALL-OUTER
G11
G1 F1800 X100.975 Y111.96 E32.49478
G1 X101.047 Y112.86 E32.60312
G1 X101.174 Y113.576 E32.69038
G1 X101.373 Y114.405 E32.79269
G1 X101.6 Y115.1 E32.88043
G1 X101.915 Y115.868 E32.98004
G1 X102.197 Y116.444 E33.057
G1 X102.554 Y117.075 E33.144
G1 X102.973 Y117.687 E33.233
G1 X103.362 Y118.189 E33.30921
G1 X103.821 Y118.72 E33.39343
G1 X104.381 Y119.265 E33.4872
G1 X104.806 Y119.637 E33.55498
G1 X105.307 Y120.021 E33.63073
G1 X105.916 Y120.44 E33.71944
G1 X106.688 Y120.876 E33.82583
G1 X107.673 Y121.326 E33.95578
G1 X108.815 Y121.697 E34.09987
G1 X109.762 Y121.889 E34.21582
G1 X110.49 Y121.986 E34.30395
G1 X111.227 Y122.037 E34.39261
G1 X111.959 Y122.025 E34.48046
G1 X112.638 Y121.978 E34.56213
G1 X113.383 Y121.863 E34.65259
G1 X114.199 Y121.693 E34.75261
G1 X115.323 Y121.327 E34.89446
G1 X116.311 Y120.877 E35.02474
G1 X116.926 Y120.529 E35.10954
G1 X117.617 Y120.076 E35.20869
G1 X118.191 Y119.636 E35.29548
G1 X118.723 Y119.176 E35.37987
G1 X119.267 Y118.617 E35.47347
G1 X119.637 Y118.192 E35.54109
G1 X120.206 Y117.447 E35.65359
G1 X120.624 Y116.767 E35.74937
G1 X120.927 Y116.201 E35.82641
G1 X121.329 Y115.319 E35.94273
G1 X121.694 Y114.197 E36.08431
G1 X121.873 Y113.329 E36.19066
G1 X121.966 Y112.69 E36.26815
G1 X122.025 Y111.959 E36.35616
G1 X122.037 Y111.227 E36.44401
G1 X121.978 Y110.36 E36.54829
G1 X121.839 Y109.44 E36.65994
G1 X121.628 Y108.597 E36.76422
G1 X121.328 Y107.678 E36.88023
G1 X120.878 Y106.69 E37.01051
G1 X120.529 Y106.074 E37.09547
G1 X120.076 Y105.383 E37.19462
G1 X119.636 Y104.809 E37.28141
G1 X119.176 Y104.277 E37.3658
G1 X118.617 Y103.733 E37.4594
G1 X118.193 Y103.364 E37.52685
G1 X117.448 Y102.794 E37.63942
G1 X116.605 Y102.279 E37.75796
G1 X115.958 Y101.956 E37.84474
G1 X115.1 Y101.6 E37.95621
G1 X114.2 Y101.307 E38.06979
G1 X113.329 Y101.127 E38.17652
G1 X112.69 Y101.033 E38.25402
G1 X111.959 Y100.975 E38.34202
G1 X111.23 Y100.963 E38.42951
G1 X110.459 Y101.017 E38.52226
G1 X109.945 Y101.081 E38.58441
G1 X109.06 Y101.241 E38.69233
G1 X108.235 Y101.483 E38.79551
G1 X107.511 Y101.752 E38.88819
G1 X106.689 Y102.123 E38.99641
G1 X106.074 Y102.471 E39.08121
G1 X105.385 Y102.922 E39.18002
G1 X104.809 Y103.364 E39.26715
G1 X104.277 Y103.824 E39.35154
G1 X103.733 Y104.383 E39.44515
G1 X103.196 Y105.001 E39.54339
G1 X102.662 Y105.768 E39.65554
G1 X102.376 Y106.233 E39.72105
G1 X101.961 Y107.009 E39.82665
G1 X101.54 Y108.043 E39.96062
G1 X101.294 Y108.882 E40.06554
G1 X101.124 Y109.636 E40.15829
G1 X101.014 Y110.488 E40.26138
G1 X100.963 Y111.23 E40.35063
G0 F3600 X100.966 Y111.43
G10
G0 X101.469 Y111.165
G0 X102.961 Y111.872
G0 X103.542 Y111.86
G11
G1 F1800 X103.549 Y111.007 E40.45299
G1 X103.632 Y110.18 E40.55273
G1 X103.864 Y109.231 E40.66997
G1 X104.15 Y108.401 E40.77531
G1 X104.505 Y107.688 E40.87089
G1 X104.862 Y107.096 E40.95385
G1 X105.53 Y106.204 E41.08758
G1 X106.174 Y105.577 E41.19543
G1 X106.762 Y105.097 E41.28652
G1 X107.285 Y104.741 E41.36244
G1 X107.832 Y104.429 E41.43801
G1 X108.73 Y104.014 E41.55672
G1 X109.888 Y103.686 E41.70114
G1 X110.812 Y103.564 E41.81299
G1 X111.369 Y103.536 E41.87991
G1 X111.992 Y103.549 E41.95469
G1 X112.549 Y103.603 E42.02184
G1 X113.282 Y103.728 E42.11107
G1 X113.97 Y103.927 E42.19701
G1 X114.829 Y104.248 E42.30706
G1 X115.612 Y104.678 E42.41425
G1 X116.237 Y105.096 E42.50448
G1 X116.995 Y105.732 E42.62322
G1 X117.382 Y106.128 E42.68966
G1 X117.902 Y106.757 E42.78759
G1 X118.335 Y107.41 E42.88162
G1 X118.667 Y108.021 E42.96506
G1 X119.001 Y108.785 E43.06512
G1 X119.233 Y109.584 E43.16496
G1 X119.39 Y110.392 E43.26373
G1 X119.451 Y111.019 E43.33933
G1 X119.465 Y111.639 E43.41375
G1 X119.407 Y112.587 E43.52772
G1 X119.144 Y113.787 E43.67514
G1 X118.855 Y114.559 E43.77406
G1 X118.498 Y115.307 E43.87352
G1 X118.138 Y115.904 E43.95717
G1 X117.477 Y116.789 E44.08973
G1 X116.872 Y117.382 E44.19138
G1 X116.244 Y117.901 E44.28915
G1 X115.722 Y118.256 E44.3649
G1 X114.722 Y118.803 E44.50168
G1 X113.701 Y119.156 E44.63132
G1 X112.823 Y119.368 E44.73971
G1 X111.857 Y119.458 E44.85613
G1 X111.007 Y119.451 E44.95813
G1 X110.378 Y119.387 E45.034
G1 X109.567 Y119.229 E45.13315
G1 X109.03 Y119.073 E45.20025
G1 X108.177 Y118.754 E45.30954
G1 X107.388 Y118.322 E45.41748
G1 X106.769 Y117.908 E45.50684
G1 X106.005 Y117.268 E45.62644
G1 X105.618 Y116.872 E45.69288
G1 X105.099 Y116.244 E45.79065
G1 X104.669 Y115.596 E45.88397
G1 X104.245 Y114.791 E45.99315
G1 X104.012 Y114.22 E46.06716
G1 X103.841 Y113.688 E46.13421
G1 X103.63 Y112.814 E46.24211
G1 X103.542 Y111.86 E46.35707
G0 F3600 X103.543 Y111.66
G0 X103.144 Y111.896
;TYPE:WALL-INNER
G1 F1800 X103.151 Y110.967 E46.46856
G1 X103.235 Y110.129 E46.56962
G1 X103.477 Y109.128 E46.6932
G1 X103.798 Y108.209 E46.81001
G1 X104.147 Y107.508 E46.90398
G1 X104.542 Y106.856 E46.99546
G1 X105.228 Y105.941 E47.13269
G1 X105.912 Y105.275 E47.24725
G1 X106.509 Y104.786 E47.33986
G1 X107.056 Y104.412 E47.41938
G1 X107.62 Y104.088 E47.49743
G1 X108.59 Y103.639 E47.62569
G1 X109.794 Y103.295 E47.77596
G1 X110.743 Y103.168 E47.89085
G1 X111.332 Y103.136 E47.96163
G1 X112.03 Y103.151 E48.04541
G1 X112.602 Y103.205 E48.11436
G1 X113.364 Y103.335 E48.20712
G1 X114.086 Y103.543 E48.29728
G1 X114.983 Y103.878 E48.41219
G1 X115.814 Y104.332 E48.52582
G1 X116.481 Y104.778 E48.6221
G1 X117.271 Y105.44 E48.74579
G1 X117.682 Y105.862 E48.81648
G1 X118.22 Y106.513 E48.91782
G1 X118.662 Y107.176 E49.01344
G1 X119.03 Y107.852 E49.1058
G1 X119.379 Y108.653 E49.21065
G1 X119.619 Y109.476 E49.31352
G1 X119.785 Y110.322 E49.41698
