;FLAVOR:UltiGCode
;TIME:867
;MATERIAL:2590
;MATERIAL2:0
;NOZZLE_DIAMETER:0.4
;MINX:95.676
;MINY:95.679
;MINZ:0.3
;MAXX:127.32
;MAXY:127.316
;MAXZ:16.61
;Generated with Cura_SteamEngine main
M82 ;absolute extrusion mode
G0 F3000 Y50 ;avoid prime blob
G92 E0
G92 E0
G10
;LAYER_COUNT:67
;LAYER:0
M107
G0 F3600 X100.023 Y100.602 Z0.3
G0 X95.676 Y111.348
;TYPE:SKIRT
G11
G1 F1800 X95.72 Y110.213 E0.1363
G1 X95.819 Y109.363 E0.23899
G1 X96.044 Y108.058 E0.3979
G1 X96.36 Y106.916 E0.54009
G1 X96.631 Y106.062 E0.64761
G1 X97.013 Y105.147 E0.76659
G1 X97.439 Y104.223 E0.88869
G1 X98.074 Y103.13 E1.04038
G1 X98.346 Y102.698 E1.10164
G1 X98.664 Y102.246 E1.16796
G1 X99.221 Y101.519 E1.27786
G1 X99.587 Y101.076 E1.34681
G1 X100.023 Y100.602 E1.4241
G1 X100.572 Y100.054 E1.51718
G1 X101.14 Y99.524 E1.61041
G1 X101.806 Y98.949 E1.71599
G1 X102.294 Y98.589 E1.78876
G1 X103.258 Y97.984 E1.92534
G1 X104.177 Y97.445 E2.05318
G1 X104.962 Y97.08 E2.15707
G1 X105.643 Y96.796 E2.24561
G1 X106.84 Y96.373 E2.39796
G1 X108.001 Y96.065 E2.54209
G1 X108.554 Y95.942 E2.61008
G1 X109.386 Y95.785 E2.71168
G1 X109.963 Y95.72 E2.78136
G1 X110.95 Y95.684 E2.89987
G1 X112.042 Y95.679 E3.03092
G1 X112.757 Y95.725 E3.11689
G1 X113.603 Y95.812 E3.21895
G1 X115.089 Y96.08 E3.40015
G1 X115.863 Y96.289 E3.49635
G1 X117.03 Y96.663 E3.64341
G1 X117.836 Y96.998 E3.74815
G1 X118.773 Y97.438 E3.87237
G1 X120.008 Y98.15 E4.04343
G1 X121.207 Y98.992 E4.21925
G1 X121.794 Y99.489 E4.31155
G1 X122.536 Y100.167 E4.43216
G1 X123.09 Y100.719 E4.52601
G1 X123.635 Y101.321 E4.62345
G1 X124.129 Y101.907 E4.71543
G1 X124.456 Y102.356 E4.78208
G1 X124.907 Y103.078 E4.88423
G1 X125.51 Y104.095 E5.02611
G1 X125.942 Y105.021 E5.14873
G1 X126.234 Y105.713 E5.23886
G1 X126.445 Y106.298 E5.31349
G1 X126.74 Y107.238 E5.43171
G1 X126.886 Y107.788 E5.5
G1 X127.099 Y108.777 E5.6214
G1 X127.229 Y109.506 E5.71026
G1 X127.289 Y110.067 E5.77796
G1 X127.312 Y110.719 E5.85625
G1 X127.32 Y112.142 E6.02701
G1 X127.273 Y112.863 E6.11372
G1 X127.106 Y114.074 E6.26041
G1 X126.925 Y115.078 E6.38284
G1 X126.715 Y115.868 E6.48093
G1 X126.51 Y116.513 E6.56214
G1 X126.136 Y117.536 E6.69285
G1 X125.471 Y118.949 E6.88025
G1 X125.129 Y119.537 E6.96188
G1 X124.421 Y120.648 E7.11997
G1 X123.968 Y121.245 E7.2099
G1 X123.287 Y122.05 E7.33643
G1 X122.917 Y122.457 E7.40243
G1 X122.501 Y122.882 E7.4738
G1 X122.071 Y123.284 E7.54443
G1 X121.661 Y123.649 E7.61031
G1 X121.123 Y124.106 E7.69501
G1 X120.656 Y124.447 E7.7644
G1 X119.752 Y125.011 E7.89226
G1 X118.906 Y125.508 E8.01001
G1 X117.824 Y126.008 E8.15304
G1 X117.322 Y126.215 E8.2182
G1 X116.49 Y126.516 E8.32437
G1 X115.957 Y126.689 E8.39162
G1 X115.262 Y126.876 E8.47798
G1 X114.254 Y127.098 E8.60184
G1 X113.581 Y127.221 E8.68394
G1 X113.011 Y127.283 E8.75274
G1 X112.098 Y127.315 E8.86237
G1 X110.942 Y127.316 E9.00109
G1 X110.392 Y127.292 E9.06715
G1 X109.775 Y127.235 E9.14151
G1 X108.731 Y127.087 E9.26804
G1 X107.741 Y126.863 E9.38984
G1 X106.56 Y126.542 E9.53671
G1 X105.911 Y126.311 E9.61937
G1 X105.354 Y126.088 E9.69137
G1 X104.719 Y125.8 E9.77504
G1 X103.983 Y125.435 E9.87363
G1 X103.038 Y124.884 E10.00489
G1 X102.337 Y124.409 E10.10651
G1 X101.768 Y123.988 E10.19144
G1 X100.727 Y123.099 E10.35572
G1 X99.776 Y122.143 E10.51753
G1 X98.897 Y121.124 E10.67902
G1 X98.543 Y120.643 E10.75069
G1 X98.063 Y119.875 E10.85937
G1 X97.51 Y118.941 E10.98962
G1 X96.877 Y117.573 E11.1705
G1 X96.516 Y116.605 E11.29448
G1 X96.354 Y116.103 E11.35778
G1 X96.187 Y115.507 E11.43205
G1 X95.897 Y114.199 E11.59282
G1 X95.779 Y113.557 E11.67115
G1 X95.719 Y113.023 E11.73563
G1 X95.687 Y112.302 E11.82224
G1 X95.676 Y111.348 E11.93673
G0 F3600 X96.073 Y111.56
G1 F1800 X96.109 Y110.507 E12.06316
G1 X96.177 Y109.638 E12.16776
G1 X96.435 Y108.149 E12.3491
G1 X96.7 Y107.177 E12.47
G1 X97.005 Y106.206 E12.59213
G1 X97.319 Y105.447 E12.6907
G1 X97.797 Y104.403 E12.82849
G1 X98.576 Y103.065 E13.01428
G1 X98.981 Y102.49 E13.09867
G1 X99.538 Y101.763 E13.20858
G1 X99.883 Y101.345 E13.27361
G1 X100.306 Y100.885 E13.34861
G1 X100.855 Y100.337 E13.44169
G1 X101.401 Y99.827 E13.53135
G1 X102.067 Y99.252 E13.63693
G1 X102.506 Y98.928 E13.7024
G1 X103.57 Y98.262 E13.85303
G1 X104.356 Y97.803 E13.96226
G1 X105.131 Y97.443 E14.0648
G1 X105.776 Y97.173 E14.14871
G1 X106.953 Y96.757 E14.29851
G1 X107.935 Y96.493 E14.42054
G1 X108.762 Y96.308 E14.52223
G1 X109.459 Y96.178 E14.60731
G1 X109.979 Y96.12 E14.6701
G1 X110.952 Y96.084 E14.78694
G1 X112.035 Y96.08 E14.9169
G1 X112.716 Y96.123 E14.99878
G1 X113.546 Y96.209 E15.09892
G1 X115.016 Y96.473 E15.27814
G1 X115.741 Y96.67 E15.36829
G1 X116.884 Y97.037 E15.51235
G1 X117.666 Y97.36 E15.61388
G1 X118.582 Y97.79 E15.73531
G1 X119.793 Y98.488 E15.90304
G1 X120.962 Y99.31 E16.07453
G1 X121.633 Y99.88 E16.18018
G1 X122.137 Y100.339 E16.26198
G1 X122.808 Y101.003 E16.37526
G1 X123.404 Y101.665 E16.48215
G1 X123.986 Y102.358 E16.59075
G1 X124.563 Y103.282 E16.72147
G1 X125.158 Y104.286 E16.86152
G1 X125.58 Y105.19 E16.98124
G1 X125.859 Y105.852 E17.06744
G1 X126.064 Y106.418 E17.13968
G1 X126.32 Y107.228 E17.24162
G1 X126.495 Y107.873 E17.32182
G1 X126.705 Y108.847 E17.44139
G1 X126.835 Y109.576 E17.53025
G1 X126.889 Y110.081 E17.59119
G1 X126.912 Y110.733 E17.66948
G1 X126.92 Y112.154 E17.84
G1 X126.859 Y112.943 E17.93496
G1 X126.713 Y114.003 E18.06337
G1 X126.561 Y114.845 E18.16604
G1 X126.378 Y115.591 E18.25821
G1 X126.192 Y116.203 E18.33497
G1 X125.767 Y117.381 E18.48525
G1 X125.117 Y118.762 E18.66841
G1 X124.792 Y119.322 E18.7461
G1 X124.099 Y120.41 E18.9009
G1 X123.662 Y120.988 E18.98785
G1 X122.991 Y121.781 E19.11251
G1 X122.621 Y122.188 E19.17851
G1 X122.228 Y122.59 E19.24597
G1 X121.798 Y122.992 E19.31661
G1 X121.402 Y123.344 E19.38019
G1 X120.864 Y123.801 E19.4649
G1 X120.443 Y124.108 E19.52743
G1 X119.55 Y124.666 E19.65379
G1 X118.72 Y125.153 E19.76926
G1 X117.771 Y125.594 E19.89484
G1 X117.186 Y125.839 E19.97095
G1 X116.105 Y126.229 E20.10885
G1 X115.175 Y126.486 E20.22463
G1 X114.319 Y126.677 E20.32988
G1 X113.509 Y126.827 E20.42873
G1 X112.996 Y126.884 E20.49067
G1 X112.216 Y126.913 E20.58434
G1 X111.111 Y126.919 E20.71694
G1 X110.423 Y126.893 E20.79956
G1 X109.831 Y126.839 E20.87089
G1 X108.802 Y126.693 E20.99561
G1 X107.829 Y126.473 E21.11532
G1 X106.683 Y126.162 E21.25781
G1 X105.895 Y125.877 E21.35837
G1 X105.358 Y125.654 E21.42814
G1 X104.587 Y125.297 E21.5301
G1 X103.72 Y124.832 E21.64816
G1 X102.946 Y124.34 E21.75821
G1 X102.426 Y123.981 E21.83404
G1 X101.927 Y123.597 E21.9096
G1 X100.999 Y122.806 E22.05592
G1 X100.022 Y121.821 E22.2224
G1 X99.201 Y120.864 E22.37371
G1 X98.882 Y120.43 E22.43835
G1 X98.408 Y119.671 E22.54573
G1 X97.866 Y118.754 E22.67355
G1 X97.411 Y117.778 E22.80278
G1 X97.028 Y116.876 E22.92037
G1 X96.735 Y115.981 E23.03338
G1 X96.527 Y115.215 E23.12863
G1 X96.263 Y113.99 E23.279
G1 X96.13 Y113.252 E23.36899
G1 X96.083 Y112.183 E23.49739
G1 X96.073 Y111.56 E23.57216
G0 F3600 X96.475 Y111.379
G1 F1800 X96.508 Y110.523 E23.67496
G1 X96.555 Y109.929 E23.74646
G1 X96.638 Y109.298 E23.82283
G1 X96.826 Y108.233 E23.95261
G1 X97.086 Y107.283 E24.0708
G1 X97.38 Y106.346 E24.18865
G1 X97.74 Y105.482 E24.30097
G1 X98.153 Y104.586 E24.41936
G1 X98.896 Y103.308 E24.59675
G1 X99.299 Y102.733 E24.68101
G1 X99.856 Y102.006 E24.79092
G1 X100.18 Y101.613 E24.85204
G1 X100.588 Y101.168 E24.92448
G1 X101.137 Y100.62 E25.01757
G1 X101.568 Y100.215 E25.08854
G1 X102.511 Y99.397 E25.23834
G1 X103.772 Y98.608 E25.41684
G1 X104.55 Y98.154 E25.52493
G1 X105.39 Y97.765 E25.63602
G1 X105.909 Y97.55 E25.70343
G1 X107.067 Y97.141 E25.8508
G1 X108.174 Y96.846 E25.98828
G1 X108.835 Y96.701 E26.06948
G1 X109.762 Y96.528 E26.18264
G1 X110.843 Y96.486 E26.31246
G1 X111.917 Y96.48 E26.44134
G1 X112.53 Y96.509 E26.51499
G1 X113.482 Y96.604 E26.62979
G1 X114.788 Y96.839 E26.78903
G1 X115.452 Y97.002 E26.87108
G1 X116.743 Y97.411 E27.03358
G1 X117.496 Y97.722 E27.13135
G1 X118.405 Y98.149 E27.25186
G1 X119.571 Y98.82 E27.4133
G1 X120.721 Y99.629 E27.58202
G1 X121.364 Y100.176 E27.68333
G1 X121.972 Y100.734 E27.78236
G1 X122.526 Y101.286 E27.8762
G1 X123.098 Y101.922 E27.97885
G1 X123.659 Y102.59 E28.08353
G1 X124.177 Y103.417 E28.20063
G1 X124.802 Y104.472 E28.34778
G1 X125.217 Y105.359 E28.46529
G1 X125.427 Y105.849 E28.52926
G1 X125.632 Y106.393 E28.59902
G1 X125.969 Y107.453 E28.7325
G1 X126.105 Y107.958 E28.79526
G1 X126.288 Y108.798 E28.89842
G1 X126.482 Y109.871 E29.02927
G1 X126.514 Y110.845 E29.14621
G1 X126.518 Y112.035 E29.28901
G1 X126.482 Y112.701 E29.36905
G1 X126.319 Y113.931 E29.51794
G1 X126.167 Y114.773 E29.62061
G1 X125.991 Y115.49 E29.70921
G1 X125.759 Y116.238 E29.80319
G1 X125.399 Y117.222 E29.92892
G1 X124.758 Y118.585 E30.10966
G1 X124.455 Y119.107 E30.18209
G1 X123.77 Y120.181 E30.33496
G1 X123.356 Y120.73 E30.41747
G1 X122.695 Y121.512 E30.54034
G1 X122.325 Y121.919 E30.60635
G1 X121.954 Y122.298 E30.66999
G1 X121.328 Y122.882 E30.77272
G1 X120.429 Y123.645 E30.91422
G1 X119.347 Y124.321 E31.06732
G1 X118.532 Y124.799 E31.1807
G1 X117.603 Y125.231 E31.30364
G1 X117.05 Y125.463 E31.3756
G1 X115.939 Y125.864 E31.51734
G1 X115.246 Y126.056 E31.60363
G1 X114.11 Y126.311 E31.74335
G1 X113.207 Y126.476 E31.8535
G1 X112.095 Y126.515 E31.98702
G1 X110.764 Y126.517 E32.14674
G1 X109.887 Y126.443 E32.25236
G1 X108.879 Y126.3 E32.37453
G1 X107.772 Y126.046 E32.51082
G1 X106.796 Y125.777 E32.63231
G1 X106.046 Y125.506 E32.728
G1 X105.525 Y125.29 E32.79568
G1 X104.767 Y124.939 E32.89592
G1 X104.135 Y124.601 E32.98193
G1 X103.442 Y124.193 E33.07843
G1 X102.666 Y123.661 E33.19133
G1 X102.187 Y123.293 E33.26381
G1 X101.273 Y122.514 E33.40793
G1 X100.306 Y121.539 E33.57271
G1 X99.35 Y120.424 E33.74896
G1 X98.752 Y119.467 E33.88438
G1 X98.218 Y118.564 E34.01027
G1 X97.773 Y117.609 E34.1367
G1 X97.397 Y116.721 E34.25242
G1 X97.074 Y115.719 E34.37875
G1 X96.918 Y115.13 E34.45187
G1 X96.657 Y113.919 E34.60052
G1 X96.527 Y113.2 E34.6882
G1 X96.483 Y112.176 E34.81119
G1 X96.475 Y111.379 E34.90684
G10
G0 F3600 X99.718 Y111.294
;TYPE:SUPPORT
G11
G1 F2149.4 X99.734 Y112.273 E35.00671
G1 X99.779 Y112.836 E35.06432
G1 X99.897 Y113.548 E35.13793
G1 X100.084 Y114.444 E35.2313
G1 X100.446 Y115.602 E35.35505
G1 X100.819 Y116.477 E35.45207
G1 X101.043 Y116.942 E35.50472
G1 X101.289 Y117.379 E35.55587
G1 X101.967 Y118.471 E35.68697
G1 X102.815 Y119.47 E35.82063
G1 X103.527 Y120.178 E35.92305
G1 X103.927 Y120.52 E35.97673
G1 X104.616 Y121.081 E36.06736
G1 X105.739 Y121.789 E36.20277
G1 X106.688 Y122.26 E36.31083
G1 X107.477 Y122.577 E36.39756
G1 X108.529 Y122.909 E36.51008
G1 X109.695 Y123.151 E36.63155
G1 X110.236 Y123.216 E36.68713
G1 X110.989 Y123.275 E36.76417
G1 X112.266 Y123.266 E36.89443
G1 X112.833 Y123.223 E36.95243
G1 X113.557 Y123.104 E37.02727
G1 X114.422 Y122.922 E37.11743
G1 X115.414 Y122.62 E37.2232
G1 X116.013 Y122.38 E37.28902
G1 X116.734 Y122.073 E37.36895
G1 X117.385 Y121.708 E37.44508
G1 X118.467 Y121.036 E37.57499
G1 X119.473 Y120.178 E37.70986
G1 X120.109 Y119.554 E37.80074
G1 X120.54 Y119.048 E37.86854
G1 X121.018 Y118.465 E37.94543
G1 X121.418 Y117.851 E38.02018
G1 X121.717 Y117.373 E38.07769
G1 X122.129 Y116.595 E38.16748
G1 X122.581 Y115.54 E38.28455
G1 X122.927 Y114.406 E38.40549
G1 X123.151 Y113.293 E38.52129
G1 X123.276 Y112.14 E38.63958
G1 X123.265 Y110.731 E38.78331
G1 X123.226 Y110.208 E38.8368
G1 X123.103 Y109.445 E38.91563
G1 X122.922 Y108.579 E39.00587
G1 X122.6 Y107.532 E39.1176
G1 X122.381 Y106.986 E39.17761
G1 X122.067 Y106.256 E39.25866
G1 X121.71 Y105.618 E39.33324
G1 X121.014 Y104.503 E39.4673
G1 X120.177 Y103.524 E39.59868
G1 X119.387 Y102.739 E39.71228
G1 X118.488 Y102 E39.83098
G1 X117.822 Y101.564 E39.91218
G1 X117.366 Y101.281 E39.96692
G1 X116.624 Y100.886 E40.05266
G1 X115.999 Y100.615 E40.12214
G1 X115.445 Y100.391 E40.1831
G1 X114.543 Y100.116 E40.27928
G1 X113.737 Y99.929 E40.36368
G1 X112.969 Y99.809 E40.44296
G1 X112.118 Y99.733 E40.53011
G1 X111.612 Y99.724 E40.58173
G1 X110.727 Y99.734 E40.67201
G1 X110.166 Y99.776 E40.72939
G1 X109.443 Y99.897 E40.80416
G1 X108.566 Y100.083 E40.8956
G1 X107.475 Y100.423 E41.01216
G1 X106.665 Y100.748 E41.10119
G1 X106.125 Y101.008 E41.16232
G1 X105.615 Y101.292 E41.22186
G1 X104.514 Y101.974 E41.35396
G1 X103.525 Y102.824 E41.48698
G1 X102.886 Y103.452 E41.57836
G1 X102.482 Y103.924 E41.64174
G1 X101.989 Y104.528 E41.72126
G1 X101.584 Y105.148 E41.7968
G1 X101.216 Y105.735 E41.86746
G1 X100.821 Y106.527 E41.95774
G1 X100.398 Y107.531 E42.06886
G1 X100.072 Y108.593 E42.18218
G1 X99.856 Y109.652 E42.29242
G1 X99.734 Y110.739 E42.40399
G1 X99.718 Y111.294 E42.46062
G10
;MESH:LP-ConCon-Test-RubberRingConnection.stl
G0 F3600 X101.179 Y111.292
G0 X100.979 Y110.897
;TYPE:WALL-OUTER
G11
G1 F1800 X100.98 Y112.193 E42.61614
G1 X101.132 Y113.327 E42.75344
G1 X101.331 Y114.228 E42.86416
G1 X101.605 Y115.099 E42.97373
G1 X101.957 Y115.947 E43.08391
G1 X102.38 Y116.762 E43.1941
G1 X102.999 Y117.734 E43.33239
G1 X103.727 Y118.603 E43.46842
G1 X104.394 Y119.273 E43.58187
G1 X105.266 Y120.001 E43.71818
G1 X106.234 Y120.617 E43.85587
G1 X107.049 Y121.041 E43.96611
G1 X107.899 Y121.394 E44.07656
G1 X108.772 Y121.669 E44.18639
G1 X109.896 Y121.918 E44.32454
G1 X111.044 Y122.02 E44.46285
G1 X112.182 Y122.02 E44.59941
G1 X113.327 Y121.868 E44.73801
G1 X114.228 Y121.669 E44.84874
G1 X115.101 Y121.394 E44.95857
G1 X115.951 Y121.041 E45.06902
G1 X116.766 Y120.617 E45.17926
G1 X117.734 Y120.001 E45.31695
G1 X118.604 Y119.272 E45.45315
G1 X119.274 Y118.605 E45.5666
G1 X120.001 Y117.734 E45.70275
G1 X120.62 Y116.762 E45.84103
G1 X121.043 Y115.947 E45.95122
G1 X121.395 Y115.099 E46.0614
G1 X121.669 Y114.228 E46.17097
G1 X121.918 Y113.104 E46.30912
G1 X122.02 Y111.956 E46.44742
G1 X122.02 Y110.811 E46.58482
G1 X121.868 Y109.668 E46.72319
G1 X121.669 Y108.772 E46.83333
G1 X121.394 Y107.897 E46.94339
G1 X121.041 Y107.049 E47.05361
G1 X120.617 Y106.234 E47.16386
G1 X120.001 Y105.266 E47.30154
G1 X119.272 Y104.396 E47.43775
G1 X118.605 Y103.726 E47.5512
G1 X117.734 Y102.999 E47.68734
G1 X116.764 Y102.382 E47.8253
G1 X115.947 Y101.957 E47.93581
G1 X115.101 Y101.606 E48.04572
G1 X114.228 Y101.331 E48.15555
G1 X113.325 Y101.131 E48.26654
G1 X112.829 Y101.055 E48.32675
G1 X111.911 Y100.979 E48.43729
G1 X110.813 Y100.981 E48.56905
G1 X109.673 Y101.132 E48.70705
G1 X108.772 Y101.331 E48.81777
G1 X107.847 Y101.626 E48.93428
G1 X107.049 Y101.959 E49.03804
G1 X106.234 Y102.383 E49.14829
G1 X105.266 Y102.999 E49.28597
G1 X104.396 Y103.728 E49.42218
G1 X103.726 Y104.395 E49.53563
G1 X102.999 Y105.266 E49.67177
G1 X102.38 Y106.238 E49.81005
G1 X101.957 Y107.053 E49.92024
G1 X101.605 Y107.901 E50.03042
G1 X101.331 Y108.772 E50.13999
G1 X101.09 Y109.856 E50.27325
G1 X100.979 Y110.897 E50.39887
G0 F3600 X100.979 Y111.097
G10
G0 X101.279 Y111.097
G0 X102.97 Y110.823
G0 X103.537 Y110.992
G11
G1 F1800 X103.648 Y110.127 E50.50353
G1 X103.801 Y109.436 E50.58845
G1 X104.012 Y108.768 E50.67252
G1 X104.279 Y108.127 E50.75584
G1 X104.602 Y107.507 E50.83973
G1 X104.974 Y106.924 E50.92272
G1 X105.486 Y106.253 E51.02401
G1 X106.123 Y105.616 E51.13211
G1 X106.644 Y105.18 E51.21363
G1 X107.358 Y104.68 E51.31823
G1 X108.133 Y104.275 E51.42317
G1 X108.782 Y104.007 E51.50742
G1 X109.412 Y103.808 E51.58671
G1 X110.141 Y103.645 E51.67635
G1 X110.981 Y103.537 E51.77798
G1 X112.036 Y103.538 E51.90458
G1 X112.894 Y103.652 E52.00844
G1 X113.563 Y103.8 E52.09066
G1 X114.209 Y104.003 E52.17192
G1 X114.866 Y104.273 E52.25716
G1 X115.486 Y104.597 E52.3411
G1 X116.076 Y104.973 E52.42506
G1 X116.747 Y105.486 E52.52642
G1 X117.507 Y106.246 E52.65539
G1 X118.033 Y106.934 E52.75932
G1 X118.407 Y107.522 E52.84294
G1 X118.729 Y108.144 E52.92699
G1 X118.991 Y108.775 E53.00898
G1 X119.201 Y109.445 E53.09323
G1 X119.351 Y110.122 E53.17644
G1 X119.464 Y110.991 E53.2816
G1 X119.463 Y111.857 E53.38552
G1 X119.386 Y112.725 E53.49009
G1 X119.2 Y113.563 E53.5931
G1 X118.995 Y114.214 E53.675
G1 X118.726 Y114.868 E53.75986
G1 X118.398 Y115.493 E53.84456
G1 X118.026 Y116.076 E53.92755
G1 X117.507 Y116.754 E54.03001
G1 X116.877 Y117.384 E54.13692
